X: 92
T:Mutt's Favorite reel
R:reel
C:Jerry Holland
M:C|
L:1/8
K:G
|:EAAc B2Ac|BAAg feea|EAAc B2Ac|BGGA BcdD|
EAAc B2 Ac|BAAg feef|gfgde2dg|BGBc dBGB:|
|:EA A/A/A fA A/A/A|gA A/A/A aA A/A/A|EAfA gAaA|fgdg BGGD:|

